polaris-icons/icons/new-icons/BillingStatementPoundMajor.svg

<svg width="20" height="20" viewBox="0 0 20 20" fill="none" xmlns="http://www.w3.org/2000/svg">
<path fill-rule="evenodd" clip-rule="evenodd" d="M4.9626 17.4004C4.38275 17.1779 4 16.6211 4 16V5C4 3.61929 5.11929 2.5 6.5 2.5H13.5C14.8807 2.5 16 3.61929 16 5V16C16 16.6211 15.6172 17.1779 15.0374 17.4004C14.4576 17.6229 13.8005 17.4651 13.3851 17.0035L12.25 15.7423L11.1149 17.0035C10.8305 17.3195 10.4252 17.5 10 17.5C9.57477 17.5 9.16952 17.3195 8.88506 17.0035L7.74999 15.7423L6.61493 17.0035C6.19945 17.4651 5.54245 17.6229 4.9626 17.4004ZM7.74999 14.9949L7.75085 14.9941ZM12.3515 14H12.1485C11.911 14.024 11.6806 14.1327 11.5067 14.3259L10 16L8.49329 14.3259C8.31939 14.1327 8.08898 14.024 7.85154 14H7.64845C7.41101 14.024 7.18061 14.1327 7.00671 14.3259L5.5 16V5C5.5 4.44772 5.94772 4 6.5 4H13.5C14.0523 4 14.5 4.44772 14.5 5V16L12.9933 14.3259C12.8194 14.1327 12.589 14.024 12.3515 14Z" fill="#4A4A4A"/>
<path d="M8.5 6.75C8.5 5.7835 9.2835 5 10.25 5H11.25C11.9404 5 12.5 5.55964 12.5 6.25V7.5C12.5 7.91421 12.1642 8.25 11.75 8.25C11.3358 8.25 11 7.91421 11 7.5V6.5H10.25C10.1119 6.5 10 6.61193 10 6.75V8.75H10.75C11.1642 8.75 11.5 9.08579 11.5 9.5C11.5 9.91421 11.1642 10.25 10.75 10.25H10V11.75H12.25C12.6642 11.75 13 12.0858 13 12.5C13 12.9142 12.6642 13.25 12.25 13.25H7.75C7.33579 13.25 7 12.9142 7 12.5C7 12.0858 7.33579 11.75 7.75 11.75H8.5V10.25H7.75C7.33579 10.25 7 9.91421 7 9.5C7 9.08579 7.33579 8.75 7.75 8.75H8.5V6.75Z" fill="#4A4A4A"/>
</svg>

<svg viewBox="0 0 20 20" xmlns="http://www.w3.org/2000/svg"><path fill-rule="evenodd" d="M4.963 17.4a1.5 1.5 0 0 1-.963-1.4v-11a2.5 2.5 0 0 1 2.5-2.5h7a2.5 2.5 0 0 1 2.5 2.5v11a1.5 1.5 0 0 1-2.615 1.003l-1.135-1.26-1.135 1.26a1.5 1.5 0 0 1-2.23 0l-1.135-1.26-1.135 1.26a1.5 1.5 0 0 1-1.652.397Zm2.787-2.405Zm4.601-.995h-.203a.995.995 0 0 0-.641.326l-1.507 1.674-1.507-1.674a.995.995 0 0 0-.641-.326h-.204a.995.995 0 0 0-.641.326l-1.507 1.674v-11a1 1 0 0 1 1-1h7a1 1 0 0 1 1 1v11l-1.507-1.674a.995.995 0 0 0-.642-.326Z" fill="#5C5F62"/><path d="M8.5 6.75c0-.966.784-1.75 1.75-1.75h1c.69 0 1.25.56 1.25 1.25v1.25a.75.75 0 0 1-1.5 0v-1h-.75a.25.25 0 0 0-.25.25v2h.75a.75.75 0 0 1 0 1.5h-.75v1.5h2.25a.75.75 0 0 1 0 1.5h-4.5a.75.75 0 0 1 0-1.5h.75v-1.5h-.75a.75.75 0 0 1 0-1.5h.75v-2Z" fill="#5C5F62"/></svg>
